X:225
T:McDonagh's
Z: id:dc-reel-206
M:C
L:1/8
K:E Dorian
A|B2Ad BEED|E2BE E2BE|BAFA D3E|FDAD FDFA|!
B2Ad BEED|E2BE E2BE|BAGF GABc|dBAG FDD:|!
A|d2ef gfed|fBB2 fBB2|d2ef gfed|ceae ceae|!
d2ef gfed|fBB2 fBB2|afge fdec|dBAG FDD:|!

